images/icon_behance.svg

<svg width="32" height="32" viewBox="0 0 32 32" fill="none" xmlns="http://www.w3.org/2000/svg">
<g clip-path="url(#clip0)">
<path d="M16.484 19.9293C16.484 17.4653 15.312 15.644 12.8907 14.9613C14.6573 14.12 15.5787 12.8453 15.5787 10.8627C15.5787 6.95333 12.656 6 9.284 6H0V25.628H9.544C13.1227 25.628 16.484 23.9173 16.484 19.9293ZM4.328 9.35067H8.38933C9.95067 9.35067 11.356 9.788 11.356 11.5933C11.356 13.26 10.2627 13.9307 8.716 13.9307H4.328V9.35067ZM4.32667 22.2947V16.8893H9.044C10.9493 16.8893 12.1547 17.6813 12.1547 19.692C12.1547 21.6747 10.716 22.2947 8.95467 22.2947H4.32667Z" fill="#072EFC"/>
<path d="M25.0613 26.0001C28.4666 26.0001 30.672 24.4708 31.7333 21.2201H28.2773C27.9053 22.4334 26.372 23.0748 25.1826 23.0748C22.888 23.0748 21.6826 21.7348 21.6826 19.4574H31.9666C32.292 14.9001 29.7533 11.0161 25.06 11.0161C20.7147 11.0161 17.7653 14.2721 17.7653 18.5374C17.7653 22.9641 20.56 26.0001 25.0613 26.0001ZM24.9386 13.9654C26.9053 13.9654 27.8946 15.1174 28.06 17.0014H21.688C21.8173 15.1334 23.0613 13.9654 24.9386 13.9654Z" fill="#072EFC"/>
<path d="M20.8893 7.03076H28.8733V8.9641H20.8893V7.03076Z" fill="#072EFC"/>
</g>
<defs>
<clipPath id="clip0">
<rect width="32" height="32" fill="white"/>
</clipPath>
</defs>
</svg>

<svg width="32" height="32" fill="none" xmlns="http://www.w3.org/2000/svg"><g clip-path="url(#clip0)" fill="#072EFC"><path d="M16.484 19.93c0-2.465-1.172-4.286-3.593-4.969 1.766-.841 2.688-2.116 2.688-4.098C15.579 6.953 12.656 6 9.284 6H0v19.628h9.544c3.579 0 6.94-1.71 6.94-5.699zM4.328 9.35h4.061c1.562 0 2.967.438 2.967 2.243 0 1.667-1.093 2.338-2.64 2.338H4.328V9.35zm-.001 12.945v-5.406h4.717c1.905 0 3.11.792 3.11 2.803 0 1.983-1.438 2.603-3.2 2.603H4.328zM25.061 26c3.406 0 5.611-1.53 6.672-4.78h-3.456c-.372 1.213-1.905 1.855-3.094 1.855-2.295 0-3.5-1.34-3.5-3.618h10.284c.325-4.557-2.214-8.44-6.907-8.44-4.345 0-7.295 3.255-7.295 7.52 0 4.427 2.795 7.463 7.296 7.463zm-.122-12.035c1.966 0 2.956 1.152 3.121 3.036h-6.372c.13-1.868 1.373-3.036 3.25-3.036zM20.89 7.03h7.983v1.934H20.89V7.031z"/></g><defs><clipPath id="clip0"><path fill="#fff" d="M0 0h32v32H0z"/></clipPath></defs></svg>
